svgs/regular/award-simple.svg

<svg xmlns="http://www.w3.org/2000/svg" viewBox="0 0 384 512"><!--! Font Awesome Pro 6.0.0-alpha3 by @fontawesome - https://fontawesome.com License - https://fontawesome.com/license (Commercial License) --><path d="M384 192c0-21.5-10.27-37.09-16.4-46.41c-.1543-.2363-.3105-.4707-.4668-.7031c.0273-.4082 .0547-.8145 .0762-1.223c.6133-11.01 1.66-29.42-8.91-47.69c-10.63-18.38-27.22-26.73-37.12-31.71c-.3145-.1582-.6309-.3125-.9453-.4687c-.1562-.3164-.3125-.6328-.4707-.9492c-4.971-9.898-13.31-26.48-31.7-37.13c-10.8-6.25-23.07-9.271-37.54-9.271c-3.32 0-6.729 .1641-10.14 .3535c-.4121 .0215-.8262 .0469-1.24 .0703c-.2363-.1582-.4727-.3164-.7109-.4727C229.1 10.27 213.5 0 192 0C170.5 0 154.9 10.27 145.6 16.4C145.4 16.56 145.1 16.71 144.9 16.87C144.5 16.84 144.1 16.82 143.7 16.79C140.2 16.61 136.8 16.44 133.5 16.44c-14.47 0-26.72 3.016-37.52 9.266c-18.39 10.64-26.74 27.22-31.71 37.12c-.1582 .3145-.3125 .6289-.4668 .9434c-.3145 .1543-.6309 .3086-.9453 .4668C52.96 69.21 36.37 77.55 25.73 95.95C15.15 114.2 16.19 132.6 16.81 143.6c.0215 .4082 .0488 .8184 .0762 1.225C16.72 145.1 16.57 145.3 16.41 145.6C10.27 154.9 0 170.5 0 192c0 21.5 10.27 37.09 16.41 46.41C16.56 238.6 16.72 238.9 16.87 239.1C16.85 239.5 16.82 239.9 16.8 240.3C16.18 251.3 15.13 269.8 25.71 288c10.65 18.39 27.23 26.74 37.12 31.71c.3164 .1582 .6328 .3145 .9492 .4687c.1543 .3184 .3105 .6348 .4687 .9512c4.971 9.896 13.32 26.48 31.7 37.12c.8105 .4687 1.758 .5944 2.587 1.028l-27.79 133.4c-2.727 13.09 10.86 23.55 22.82 17.57L192 461.1l98.44 49.22c11.96 5.98 25.54-4.48 22.82-17.57l-27.79-133.4c.8145-.4277 1.756-.5534 2.555-1.016c18.4-10.64 26.74-27.23 31.72-37.13c.1562-.3125 .3105-.625 .4648-.9375c.3125-.1543 .627-.3086 .9414-.4668c9.898-4.973 26.49-13.32 37.13-31.71c10.58-18.27 9.531-36.68 8.92-47.69c-.0234-.4102-.0508-.8184-.0781-1.229c.1602-.2363 .3184-.4746 .4766-.7129C373.7 229.1 384 213.5 384 192zM319.1 226.3c-3.154 11.81 2.711 27.37-3.275 37.71c-6.07 10.49-22.54 13.14-31.05 21.66c-8.508 8.51-11.17 24.97-21.66 31.04c-3.916 2.266-8.58 2.832-13.51 2.832c-4.916 0-10.09-.5645-15.04-.5645c-3.188 0-6.283 .2344-9.156 1.002C214.9 323 204.4 336 192 336c-12.38 0-22.9-12.95-34.32-16.01C154.8 319.2 151.7 318.1 148.5 318.1c-4.945 0-10.11 .5605-15.02 .5605c-4.932 0-9.602-.5664-13.52-2.834C109.5 310.6 106.8 294.2 98.31 285.7C89.8 277.2 73.34 274.5 67.27 264C61.29 253.7 67.16 238.1 64.01 226.3C60.96 214.9 48 204.4 48 192c0-12.38 12.96-22.9 16.01-34.32c3.154-11.81-2.711-27.37 3.277-37.71C73.36 109.5 89.82 106.8 98.34 98.31c8.51-8.508 11.17-24.97 21.66-31.04c3.916-2.266 8.58-2.832 13.51-2.832c4.916 0 10.09 .5645 15.04 .5645c3.188 0 6.283-.2344 9.156-1.002C169.1 60.95 179.6 48 192 48c12.39 0 22.9 12.95 34.32 16.01c2.877 .7695 5.977 1.004 9.17 1.004c4.945 0 10.11-.5605 15.02-.5605c4.932 0 9.604 .5664 13.52 2.834c10.49 6.068 13.14 22.54 21.66 31.05c8.508 8.512 24.97 11.17 31.04 21.66c5.982 10.34 .1152 25.9 3.27 37.71C323.1 169.1 336 179.6 336 192C336 204.4 323 214.9 319.1 226.3zM192 128C156.7 128 128 156.6 128 192c0 35.33 28.65 64 64 64s64-28.67 64-64C256 156.6 227.3 128 192 128z"/></svg>

<svg xmlns="http://www.w3.org/2000/svg" viewBox="0 0 384 512"><!-- Font Awesome Pro 6.0.0-alpha2 by @fontawesome - https://fontawesome.com License - https://fontawesome.com/license (Commercial License) --><path d="M384 192C384 170.504 373.732 154.908 367.596 145.59C367.441 145.354 367.285 145.119 367.129 144.887C367.156 144.479 367.184 144.072 367.205 143.664C367.818 132.652 368.846 114.221 358.275 95.951C347.643 77.566 331.074 69.24 321.176 64.266C320.861 64.107 320.545 63.953 320.23 63.797C320.074 63.48 319.918 63.164 319.76 62.848C314.789 52.949 306.467 36.383 288.076 25.74C277.275 19.49 264.988 16.451 250.512 16.451C247.191 16.451 243.783 16.615 240.369 16.805C239.957 16.826 239.543 16.852 239.129 16.875C238.893 16.717 238.656 16.559 238.418 16.402C229.098 10.268 213.498 0 192 0C170.506 0 154.91 10.268 145.592 16.402C145.359 16.557 145.127 16.711 144.896 16.867C144.482 16.842 144.072 16.818 143.664 16.795C140.242 16.605 136.826 16.439 133.498 16.439C119.031 16.439 106.75 19.477 95.951 25.727C77.564 36.363 69.24 52.93 64.268 62.828C64.109 63.143 63.955 63.457 63.801 63.771C63.486 63.926 63.17 64.08 62.855 64.238C52.955 69.211 36.385 77.533 25.742 95.928C15.17 114.186 16.193 132.623 16.807 143.639C16.828 144.047 16.855 144.457 16.883 144.863C16.725 145.1 16.566 145.336 16.408 145.574C10.271 154.896 0 170.5 0 192C0 213.498 10.271 229.094 16.408 238.414C16.562 238.646 16.719 238.881 16.873 239.111C16.848 239.518 16.82 239.924 16.797 240.33C16.182 251.344 15.152 269.775 25.725 288.049C36.371 306.439 52.932 314.762 62.826 319.732C63.143 319.891 63.459 320.047 63.775 320.201C63.93 320.52 64.086 320.836 64.244 321.152C69.215 331.049 77.537 347.613 95.92 358.256C96.73 358.725 97.703 358.871 98.531 359.305L70.74 492.699C68.014 505.793 81.598 516.254 93.559 510.273L192 461.053L290.441 510.273C302.402 516.254 315.986 505.793 313.26 492.699L285.471 359.312C286.285 358.885 287.246 358.742 288.045 358.279C306.441 347.639 314.768 331.066 319.742 321.164C319.898 320.852 320.053 320.539 320.207 320.227C320.52 320.072 320.834 319.918 321.148 319.76C331.047 314.787 347.617 306.467 358.26 288.076C368.836 269.811 367.811 251.375 367.199 240.361C367.176 239.951 367.148 239.543 367.121 239.133C367.281 238.896 367.439 238.658 367.598 238.42C373.732 229.098 384 213.496 384 192ZM319.992 226.322C316.838 238.133 322.703 253.691 316.717 264.031C310.646 274.52 294.182 277.176 285.668 285.688C277.16 294.197 274.5 310.662 264.012 316.729C260.096 318.994 255.432 319.561 250.506 319.561C245.59 319.561 240.414 318.996 235.461 318.996C232.273 318.996 229.178 319.23 226.305 319.998C214.891 323.047 204.375 336 192 336C179.617 336 169.102 323.047 157.68 319.992C154.801 319.223 151.701 318.988 148.508 318.988C143.562 318.988 138.398 319.549 133.49 319.549C128.559 319.549 123.889 318.982 119.969 316.715C109.482 310.645 106.826 294.18 98.312 285.668C89.805 277.156 73.342 274.496 67.271 264.01C61.289 253.67 67.16 238.109 64.006 226.301C60.955 214.887 48 204.377 48 192C48 179.615 60.955 169.098 64.012 157.678C67.166 145.867 61.301 130.307 67.289 119.967C73.357 109.479 89.824 106.822 98.336 98.311C106.846 89.803 109.506 73.338 119.992 67.271C123.908 65.006 128.572 64.439 133.498 64.439C138.414 64.439 143.59 65.004 148.543 65.004C151.73 65.004 154.826 64.77 157.699 64.002C169.113 60.951 179.625 48 192 48C204.387 48 214.9 60.953 226.324 64.008C229.201 64.777 232.301 65.012 235.494 65.012C240.439 65.012 245.605 64.451 250.512 64.451C255.443 64.451 260.115 65.018 264.035 67.285C274.521 73.354 277.178 89.82 285.691 98.332C294.199 106.844 310.664 109.504 316.729 119.99C322.711 130.33 316.844 145.889 319.998 157.699C323.051 169.113 336 179.623 336 192C336 204.385 323.049 214.9 319.992 226.322ZM192 128C156.65 128 128 156.582 128 192C128 227.332 156.65 256 192 256S256 227.332 256 192C256 156.582 227.35 128 192 128Z"/></svg>
